X:1
T:Quella cetra ah pur tu sei
T:Quella cetra ah pur tu sei
T:(Vertonung in G-dur)
T:Ludvig van Beethoven
C:Ludvig van Beethoven
%%score [ 1 2 3 4 ]
L:1/8
Q:1/4=80
M:2/2
K:G
V:1 treble nm="Soprano" snm="S."
V:2 treble nm="Alto" snm="A."
V:3 treble-8 nm="Tenor" snm="T."
V:4 bass nm="Bass" snm="B."
V:1
 d2 d2 | d3 B ed c B | d>c B z B2 c>B | A3 B cd/e/ dc | c2 B2 B2 B2 | Be e3 A A A | Ad d2 G2 G2 | %7
w: Quel- la|ce- tra ah * pur tu|se- * i che~ad- dol- *|cì gli~af- fan- * * ni *|mie- i, che d`o-|gni~al- * ma a suo ta-|len- * to, d`o- gni|
 c3 c Bg e^c | (e2 d2) d3 d | (d2 c) c Bc/d/ c B | B2 A2 AB cd | e3 e ed dc | c2 B2 B3 ^c | %13
w: cor la via * s`a- *|prì. * Ah! sei|tu, * tu se- * * i pur|quel- la, che * nel *|sen del- la * mia *|bel- la tan- te|
 ^c2 d2 z A A B | Bd/c/ c2 c3 e/d/ | d2 c2 B2 A2 | (A2 B) z z g2 g | g2 =f2 z f f f | =f2 e2 e3 e | %19
w: vol- te, io lo ram-|men- * * to, la fie- *|rez- za~in- te- ne-|rì, * tan- te|vol- te; io lo ram-|men- to, la fie-|
 d2 e2 d2 ^c/d/e/d/ | (d2 !fermata!G4) |] %21
w: rez- za~in- te- ne- * * *|rì. *|
V:2
 G2 G2 | G3 G G2 G G | F2 G z G2 A>G | F3 G G2 DF | F2 G2 G2 G2 | GE E3 E E E | D2 D2 D2 D2 | %7
w: Quel- la|ce- tra ah pur tu|se- i che~ad- dol- *|cì gli~af- fan- ni *|mie- i, che d`o-|gni~al- * ma a suo ta-|len- to, d`o- gni|
 C3 D DG G2 | (G2 F2) G3 G | F3 F GA/B/ A G | G2 F2 FG AB | c3 c cB BA | A2 G2 G3 A | %13
w: cor la via * s`a-|prì. * Ah! sei|tu, tu se- * * i pur|quel- la, che * nel *|sen del- la * mia *|bel- la tan- te|
 A2 A2 z A A G | G2 G2 G3 G | G2 A2 G2 F2 | (F2 G) z z B2 A | A2 A2 z A A G | G2 G2 G3 A | %19
w: vol- te, io lo ram-|men- to, la fie-|rez- za~in- te- ne-|rì, * tan- te|vol- te; io lo ram-|men- to, la fie-|
 B2 G2 G2 F2 | (F2 !fermata!G4) |] %21
w: rez- za~in- te- ne-|rì. *|
V:3
 B2 B2 | B3 G cB A G | B>A G z d2 d2 | d3 d G2 Ad | d2 d2 d2 d2 | dc c3 c A G | FG G2 B2 B2 | %7
w: Quel- la|ce- tra ah * pur tu|se- * i che~ad- dol-|cì gli~af- fan- ni *|mie- i, che d`o-|gni~al- * ma a suo ta-|len- * to, d`o- gni|
 G3 A B2 ^ce | (^c2 d2) d3 d | d3 d d2 d d | d2 d2 z4 | e d c B A2 d2 | d2 d2 d3 e | %13
w: cor la via s`a- *|prì. * Ah! sei|tu, tu se- i pur|quel- la,|che nel sen del- la mia|bel- la tan- te|
 e2 d2 z d d d | dB/c/ c2 c3 c | B2 e2 d2 c2 | (c2 B) z d3 ^e | e2 =f2 z ^c c d | d2 e2 e3 f | %19
w: vol- te, io lo ram-|men- * * to, la fie-|rez- za~in- te- ne-|rì, * tan- te|vol- te; io lo ram-|men- to, la fie-|
 g2 c2 B2 A>c | (c2 !fermata!B4) |] %21
w: rez- za~in- te- ne- *|rì. *|
V:4
 G,2 G,2 | G,3 G, G,2 G, G, | D,2 G, z G,2 G,2 | D,3 G, E,2 F,D, | D,2 G,2 G,2 G,2 | %5
w: Quel- la|ce- tra ah pur tu|se- i che~ad- dol-|cì gli~af fan- ni *|mie- i, che d`o-|
 G,C, C,3 C, C, C, | C,B,, B,,2 B,,2 B,,2 | E,3 F,G, E, A,2 | (A,2 D,2) B,3 B, | A,3 A, G,2 F, G, | %10
w: gni~al- * ma a suo ta-|len- * to, d`o- gni|cor la via * s`a-|prì. * Ah! sei|tu, tu se- i pur|
 D,2 D,2 z4 | C B, A, G, F,2 F,2 | F,2 G,2 G,3 G, | G,2 F,2 z =F, F, F, | =F,2 E,2 E,3 C, | %15
w: quel- la,|che nel sen del- la mia|bel- la tan- te|vol- te, io lo ram-|men- to, la fie-|
 G,2 C,2 D,2 D,2 | (D,2 G,) z B,3 C | ^C2 D2 z A, A, A, | B,2 C2 C3 C | B,2 C2 D2 D,2 | %20
w: rez- za~in- te- ne-|rì, * tan- te|vol- te; io lo ram-|men- to, la fie-|rez- za~in- te- ne-|
 (D,2 !fermata!G,4) |] %21
w: rì. *|

